static/assets/img/icons/theme/devices/battery-charging.svg

<svg height="24" viewBox="0 0 24 24" width="24" xmlns="http://www.w3.org/2000/svg"><g fill="none" fill-rule="evenodd"><path d="m0 0h24v24h-24z" opacity="0"/><g fill="#000"><path d="m4 9v6h13v-6zm0-2h13c1.1045695 0 2 .8954305 2 2v6c0 1.1045695-.8954305 2-2 2h-13c-1.1045695 0-2-.8954305-2-2v-6c0-1.1045695.8954305-2 2-2z" fill-rule="nonzero"/><path d="m10.3561738 14.0547828 1.383875-1.7298438c.0690019-.0862524.0550176-.2121109-.0312348-.2811128-.0354626-.02837-.0795247-.0438262-.124939-.0438262h-.583875v-1.8394449c0-.1104569-.0895431-.19999997-.2-.19999997-.0668706 0-.1293169.03342022-.1664101.08905997l-1.42629654 2.1394449c-.06127049.0919057-.03643572.2160796.05547002.2773501.0328535.0219023.07145504.0335899.11094004.0335899h.62629658v1.4298438c0 .1104569.0895431.2.2.2.0607567 0 .1182193-.027618.1561738-.075061z" opacity=".3"/><path d="m20 10h1c.5522847 0 1 .4477153 1 1v2c0 .5522847-.4477153 1-1 1h-1z" opacity=".3"/></g></g></svg>

<svg width="24px" height="24px" viewBox="0 0 24 24" version="1.1" xmlns="http://www.w3.org/2000/svg" xmlns:xlink="http://www.w3.org/1999/xlink">
    <title>Icon For Battery-charging</title>
    <g stroke="none" stroke-width="1" fill="none" fill-rule="evenodd">
        <rect opacity="0" x="0" y="0" width="24" height="24"></rect>
        <path d="M4,9 L4,15 L17,15 L17,9 L4,9 Z M4,7 L17,7 C18.1045695,7 19,7.8954305 19,9 L19,15 C19,16.1045695 18.1045695,17 17,17 L4,17 C2.8954305,17 2,16.1045695 2,15 L2,9 C2,7.8954305 2.8954305,7 4,7 Z" fill="#000000" fill-rule="nonzero"></path>
        <path d="M10.3561738,14.0547828 L11.7400488,12.324939 C11.8090507,12.2386866 11.7950664,12.1128281 11.708814,12.0438262 C11.6733514,12.0154562 11.6292893,12 11.583875,12 L11,12 L11,10.1605551 C11,10.0500982 10.9104569,9.96055513 10.8,9.96055513 C10.7331294,9.96055513 10.6706831,9.99397535 10.6335899,10.0496151 L9.20729336,12.18906 C9.14602287,12.2809657 9.17085764,12.4051396 9.26276338,12.4664101 C9.29561688,12.4883124 9.33421842,12.5 9.37370342,12.5 L10,12.5 L10,13.9298438 C10,14.0403007 10.0895431,14.1298438 10.2,14.1298438 C10.2607567,14.1298438 10.3182193,14.1022258 10.3561738,14.0547828 Z" fill="#000000" opacity="0.3"></path>
        <path d="M20,10 L21,10 C21.5522847,10 22,10.4477153 22,11 L22,13 C22,13.5522847 21.5522847,14 21,14 L20,14 L20,10 Z" fill="#000000" opacity="0.3"></path>
    </g>
</svg>
